!!!COM: Palestrina, Giovanni Perluigi da
!!!OPR: Alma Redemptoris mater
!!!OTL: Benedictus
**kern	**kern	**kern	**kern
*Itenor	*Icalto	*Icalto	*Icant
!Tenor	!Altus 2	!Altus 1	!Cantus
*clefGv2	*clefG2	*clefG2	*clefG2
*k[b-]	*k[b-]	*k[b-]	*k[b-]
*F:ion	*F:ion	*F:ion	*F:ion
*M4/2	*M4/2	*M4/2	*M4/2
=1	=1	=1	=1
1.f	0r	0r	1r
.	.	.	[1cc
2f	.	.	.
=2	=2	=2	=2
1f	0r	0r	2cc]
.	.	.	2cc
2e	.	.	1cc
2f	.	.	.
=3	=3	=3	=3
2g	0r	1r	2b-
4f	.	.	2cc
4e	.	.	.
4d	.	[1f	1dd
4c	.	.	.
[2B-	.	.	.
=4	=4	=4	=4
2B-]	0r	2f]	1.cc
4A	.	2f	.
4G	.	.	.
2A	.	1f	.
2B-	.	.	4b-
.	.	.	4a
=5	=5	=5	=5
2c	0r	2e	2g
2A	.	2f	2a
4G	.	1g	1b-
4A	.	.	.
4B-	.	.	.
4c	.	.	.
=6	=6	=6	=6
2.d	1.f	2f	2a
.	.	4d	1dd
4c	.	4e	.
2B-	.	4f	.
.	.	4g	.
2A	2f	[2a	[2cc
=7	=7	=7	=7
1d	1f	2a]	2cc]
.	.	4g	2b-
.	.	4f	.
[1c	2e	2g	[1cc
.	2f	[2f	.
=8	=8	=8	=8
1c]	1g	2f]	1cc]
.	.	2e	.
2r	2.f	1f	[1a
[2d	.	.	.
.	4e	.	.
=9	=9	=9	=9
2d]	2d	2r	1a]
2A	2c	1a	.
1B-	2.d	.	1r
.	.	2g	.
.	4e	.	.
=10	=10	=10	=10
2F	2f	2a	1.cc
1f	1a	2f	.
.	.	1c	.
2e	2g	.	2cc
=11	=11	=11	=11
1f	1a	1r	1cc
2d	2f	2r	2b-
2c	2e	[2a	2cc
=12	=12	=12	=12
1B-	1d	2a]	1dd
.	.	2g	.
1A	2e	1a	2.cc
.	2c	.	.
.	.	.	4b-
=13	=13	=13	=13
0r	2d	2f	2a
.	2e	2e	2g
.	1f	4d	1a
.	.	4e	.
.	.	[2f	.
=14	=14	=14	=14
2r	1c	2f]	0g
1c	.	4e	.
.	.	4d	.
.	2r	2.e	.
2c	2g	.	.
.	.	4f	.
=15	=15	=15	=15
1c	2e	2.g	1cc
.	2e	.	.
.	.	8f	.
.	.	8e	.
2B-	2f	2d	2dd
2c	[2a	2e	4cc
.	.	.	4b-
=16	=16	=16	=16
1d	4a]	1f	2a
.	4g	.	.
.	2.f	.	2b-
1c	.	2r	[1cc
.	8e	.	.
.	8d	.	.
.	2e	2g	.
=17	=17	=17	=17
1r	1a	2.f	0cc]
.	.	4f	.
1c	2g	1e	.
.	[2g	.	.
=18	=18	=18	=18
2.B-	2g]	4d	0r
.	.	4e	.
.	2.f	4f	.
4B-	.	4g	.
1A	.	4a	.
.	4f	4b-	.
.	2e	4cc	.
.	.	4a	.
=19	=19	=19	=19
4G	2.g	1.b-	0r
4A	.	.	.
4B-	.	.	.
4c	4g	.	.
4d	1f	.	.
4e	.	.	.
4f	.	2a	.
4d	.	.	.
=20	=20	=20	=20
2e	0r	2g	1cc
2f	.	2.a	.
2g	.	.	2.b-
.	.	4g	.
2G	.	[2g	.
.	.	.	4b-
=21	=21	=21	=21
2.d	0r	4g]	1a
.	.	4f	.
.	.	4f	.
4d	.	8g	.
.	.	8a	.
2.G	.	2.b-	4g
.	.	.	4a
.	.	.	4b-
4A	.	4a	4cc
=22	=22	=22	=22
4B-	1r	2g	4dd
4c	.	.	4ee
2d	.	2f	4ff
.	.	.	4dd
2c	1cc	2g	2ee
2A	.	[2f	2ff
=23	=23	=23	=23
1G	2.b-	2f]	2.gg
.	.	2e	.
.	4b-	.	4gg
1F	1a	2f	[1cc
.	.	2f	.
=24	=24	=24	=24
2r	2.g	2.e	1cc]
2c	.	.	.
.	4a	4e	.
2.B-	4b-	1d	1r
.	4a	.	.
.	4f	.	.
4B-	4g	.	.
=25	=25	=25	=25
1A	2a	4c	2r
.	.	4d	.
.	2a	4e	2cc
.	.	4f	.
4G	[1d	4g	2.b-
4A	.	4f	.
4B-	.	4d	.
4c	.	4e	4b-
=26	=26	=26	=26
4d	1d]	2.f	1a
4e	.	.	.
4f	.	.	.
4d	.	4f	.
2e-	1r	2c	4g
.	.	.	4a
2e-	.	2g	4b-
.	.	.	4cc
=27	=27	=27	=27
2d	1r	2a	4dd
.	.	.	4ee
2d	.	2f	4ff
.	.	.	4dd
2c	2r	2g	2ee-
2B-	2f	4b-	[2dd
.	.	4a	.
=28	=28	=28	=28
1c	2.e	4g	2dd]
.	.	4f	.
.	.	1g	1cc
.	4e	.	.
1G	1d	.	.
.	.	2g	2b
=29	=29	=29	=29
4A	4c	1e	1cc
4B-	4d	.	.
4c	4e	.	.
4A	4f	.	.
4B-	4g	1r	2r
4c	4a	.	.
4d	4b-	.	2dd
4e	4g	.	.
=30	=30	=30	=30
2f	2a	1r	2.cc
2e	2.g	.	.
.	.	.	4cc
2f	.	[1cc	1a
.	4f	.	.
2F	[2f	.	.
=31	=31	=31	=31
1c	2f]	1cc]	1.g
.	2e	.	.
1G	1d	2.b-	.
.	.	.	2g
.	.	4b-	.
=32	=32	=32	=32
2.A	2r	1a	1cc
.	2f	.	.
4B-	.	.	.
1c	2.e	1g	2r
.	.	.	2cc
.	4e	.	.
=33	=33	=33	=33
2G	1d	2g	2.b-
2B-	.	2f	.
.	.	.	4b-
1F	2.c	2r	1a
.	.	2f	.
.	4d	.	.
=34	=34	=34	=34
1c	4e	2.e	2.g
.	4f	.	.
.	4g	.	.
.	4e	4e	4a
2.B-	2.f	1d	4b-
.	.	.	4cc
.	.	.	4dd
4B-	4g	.	4b-
=35	=35	=35	=35
1A	2a	4c	2.cc
.	.	4d	.
.	2a	4e	.
.	.	4f	4a
1G	2d	4g	4b-
.	.	4a	4cc
.	2g	4b-	4dd
.	.	4g	4ee
=36	=36	=36	=36
2F	2cc	2a	2ff
2G	2b-	2.g	4ee
.	.	.	4dd
2.A	1a	.	[1cc
.	.	4f	.
.	.	[2f	.
4B-	.	.	.
=37	=37	=37	=37
1c	1g	2f]	0cc]
.	.	2e	.
[1F	2.a	2.f	.
.	4g	4g	.
=38	=38	=38	=38
2F]	2f	2a	1cc
2F	2f	2a	.
[1c	[1e	[1g	[1cc
=39	=39	=39	=39
1c]	1e]	1g]	1cc]
==	==	==	==
*-	*-	*-	*-
!!!CDT: 1525/^1526/-1594/2/2
!!!OCY: Italia
!!!AGN: Mass (Paraphrase)
!!!AST: renaissance, vocal
!!!ASW: Antiphon
!!!PWK: Masses, Book 11
!!!RNB: Cadence finals: C
!!!YOR: Le Opere Complete, v. 28, p. 148
!!!YOO: Rome, Italy: Fratelli Scalera
!!!END: 1992//
!!!EED: John Miller
!!!YEC: Copyright 2000, John Miller
!!!YEN: United States of America
!!!YEM: Rights to all derivative electronic formats reserved.
!!!YEM: Refer to licensing agreement for further details.
!!!YEM: This file must be accompanied by the licensing agreement.
!!!YEM: A copy of the licensing agreement may be found at http://www.music-cog.ohio-state.edu/HumdrumDatabases/Palestrina/license.txt
!!!EMD: converted to Humdrum by Bret Aarden
